X: 36280
T: Seamus Cooley's
R: jig
M: 6/8
K: Dmixolydian
FAD c2A|dAA dAG|FAD cBc|dcA cAG|
FAD c2B|Add efg|f3 ded|1 cAF GFE:|2 cAF GFG||
Add fed|eAB cAG|Add fed|eAB c2B|
AdA ded|cAB cde|fag efd|1 ecA GFG:|2 ecA GFE||

